icons/op-arrow-right2-24.svg

<svg width="24" height="24" viewBox="0 0 24 24" fill="none" xmlns="http://www.w3.org/2000/svg">
<path d="M16.5617 11.0625L9.43243 4.375C8.9065 3.875 7.97151 3.875 7.41636 4.375C6.86121 4.90625 6.86121 5.75 7.41636 6.28125L13.5522 12L7.41636 17.7188C6.86121 18.25 6.86121 19.0938 7.41636 19.625C7.67933 19.875 8.05917 20 8.43901 20C8.81885 20 9.16947 19.875 9.43243 19.625L16.5617 12.9375C16.8247 12.6875 17 12.3438 17 12C17 11.6562 16.8247 11.3125 16.5617 11.0625Z" fill="black"/>
</svg>

<svg xmlns="http://www.w3.org/2000/svg" width="24" height="24" viewBox="0 0 24 24"><path d="m16.562 11.062-7.13-6.687c-.526-.5-1.46-.5-2.016 0a1.3 1.3 0 0 0 0 1.906L13.552 12l-6.136 5.719a1.3 1.3 0 0 0 0 1.906c.263.25.643.375 1.023.375.38 0 .73-.125.993-.375l7.13-6.687c.263-.25.438-.594.438-.938s-.175-.688-.438-.938Z"/></svg>
